X: 30392
T: Old Schoolhouse, The
R: reel
M: 4/4
K: Dmajor
|:DFAF BFAF|DFAF GFED|DFAF BFAF|Adfe dBB2|
Bdfd e2ed|egfe dBAF|DFAF BFAF|GFEG FDD2:|
|:defg a2af|gfeg fdd2|fage f2fe|d2fd eAA2|
defg a2af|gfeg fdd2|DFAF BFAF|GFEG FDD2:|

